X:1
T:Soldau, LM
T:Geystliche Gesangk Buchleyn, 1524
T:Soldau, LM
T:Public Domain
C:Geystliche Gesangk Buchleyn, 1524
Z:Public Domain
%%score ( 1 2 ) ( 3 4 )
L:1/8
M:4/4
K:G
V:1 treble 
V:2 treble 
V:3 bass 
V:4 bass 
V:1
 [B,G]2 | [EA]2 [DA]2 [B,G]2 [CE]2 | D2 [CE]2 [B,G]2 [GB]2 | [Fd]2 [Ae]2 [Ad]2 [FB]2 | %4
 [EG]2 E2 [DG]2 [GB]2 | [GB]2 [FA]2 [FB]2 G2 | [GA]2 [FA]2 [GB]2 [DG]2 | [CE]2 [A,D]2 [CE]3 [CF] | %8
 [DG]2 [EG]2 [DG]2- | [DG]6 |] %10
V:2
 x2 | x8 | D2 x6 | x8 | x2 E2 x4 | x6 G2 | x8 | x8 | x6 | x6 |] %10
V:3
 G,2 | [C,G,]2 [D,F,]2 [E,G,]2 [C,G,]2 | [B,,G,]2 [C,G,]2 [G,,G,]2 [G,D]2 | %3
 B,2 (A,G,) [F,D]2 [D,D]2 | [E,B,]2 [C,C]2 [G,,B,]2 [G,D]2 | [G,D]2 [D,D]2 [B,,D]2 [E,B,]2 | %6
 [C,E]2 [D,D]2 [G,,D]2 [B,,G,]2 | [C,G,]2 [D,F,]2 [C,G,]3 [A,,A,] | [G,,B,]2 [C,C]2 [G,,B,]2- | %9
 [G,,B,]6 |] %10
V:4
 G,2 | x8 | x8 | B,2 ^C2 x4 | x8 | x8 | x8 | x8 | x6 | x6 |] %10

